X:1
T:Am Sonntag
T:Franz Abt
T:Rudolf Löwenstein, Engl.: Mary A. Robinson
T:Am Sonntag / The Sabbath
T:WoO für 4 stimmigen Männergesang  (Zürich: Fries, 1852)
T:CPDL - Creative Commons Attribution Non Commercial 3.0
T:CPDL - Creative Commons Attribution Non Commercial 3.0
T:CPDL - Creative Commons Attribution Non Commercial 3.0
T:CPDL - Creative Commons Attribution Non Commercial 3.0
T:CPDL - Creative Commons Attribution Non Commercial 3.0
T:CPDL - Creative Commons Attribution Non Commercial 3.0
T:CPDL - Creative Commons Attribution Non Commercial 3.0
C:Franz Abt
Z:Rudolf Löwenstein
Z:CPDL - Creative Commons Attribution Non Commercial 3.0
%%score [ ( 1 2 ) 3 4 ( 5 6 ) ]
L:1/8
Q:1/4=88
M:3/4
K:Ab
V:1 treble-8 nm="Tenor\n1"
V:2 treble-8 
V:3 treble-8 nm="Tenor\n2"
V:4 bass nm="Bass\n1"
V:5 bass nm="Bass\n2"
V:6 bass 
V:1
"^Etwas langsam / Andante con moto"!pp!"^legato" e2 | e4 e2 | e3 e e2 | %3
w: Es|tö- net|ü- ber das|
w: A-|cross the|mead- ows a|
!<(! (e2!<)!!>(! a2)!>)! f2 | e4 a2 |!mf! af!>(! df ec!>)! |!pp! af df ec |!<(! e6-!<)! | %8
w: wei- * te|Feld ein|lieb- * li- * ches *|Glo- * cken- * ge- *|läu-|
w: sound _ is|borne a|sound _ of _ church *|bells _ soft- * ly _|ring-|
 e!>(!f ec!>)! e2 |!pp! e4 e2 | e4 e2 | (e2 a2) f2 |!<(! =d4 d2!<)! |!mf!!>(! e4!>)! ee | %14
w: * * te. * Wie|ru- hig|ist doch|heut' _ die|Welt, wie|son- nig und|
w: * * ing. * How|calm the|world, how|fair _ the|day, what|sun- shine and|
"^decres." (e2 G2) c2 |!p!!>(! B6!>)! | B2 z2!p!"^ruhig" B2 | _d3 d (3fed | !>!d>c c3 c | %19
w: won- * nig|heu-|te! Die|Hir- ten ne- ben der|Her- de ruh'n, die|
w: bright- * ness|bring-|ing. The|shep- herds lie on the|soft green grass, be-|
 B3 B (3dcB | !>!B2 A2 z!mf! f | f3"^cresc." f (3f=gf | =e>g c3!f! c | !>!d2- (3d3/2c/B (3AGF | %24
w: Her- den ruh'n auf der|Wei- de; die|From- men zie- hen zur|Kir- che nun im|statt- * li- chen Sonn- * tags-|
w: side the flock they are|tend- ing; to|church the peas- ants in|gay at- tire their|way _ now are slow- * ly|
 !>!c2!p! c z z ||[M:9/8][Q:1/4=140]"^Poco più animato"!p!"^dolce" c | d3- d2 =A"^cresc." B>cd | %27
w: klei- de.|Es|ist, _ als sän- gen die|
w: wend- ing.|Me|thinks _ that e- ven the|
 f2 e!<(! a3- a2!<)! a | a3 g2 f !>!f>ed | !>!=d3 e2 z z2!mf! c | !>!e>dc B3- B2 d | %31
w: Vö- gel auch _ heut'|schö- ner als an- de- re|Ta- ge, als|duf- te- ten heut' _ mit|
w: birds to- day _ sing|sweet- er with- in their green|bow- ers, that|strong- er by far _ the|
 !>!f>ee!<(! a3- a2!<)!!f! a | a3 _f2 f ef_g | _g3 _f2 z z2"^dim."!p! e | =d3!<(! d2 d!<)! a=gf | %35
w: stär- ke- rem Hauch _ die|Blu- men im Feld * und|Haa- ge, die|Blu- men im Feld * und|
w: fra- grance doth seem, _ ex-|haled by the way _ side|flow- ers, ex-|haled by the way _ side|
[Q:1/4=120]"^rit. e dim."!>(! (e2 =d)!>)!!pp! _d2 !fermata!z || %36
w: Haa- * ge.|
w: flow- * ers.|
[M:3/4][Q:1/4=88]"^Langsam / Un poco più lento"!p! E2 | e4 e2 | e4 e2 | e4 e2 |!<(! e4 e2!<)! | %41
w: Und|Or- gel-|klän- ge|tö- nen|fern, von|
w: And|or- gan|tones a-|far I|hear a|
!mf!!>(! (a2 f2)!>)! e2 |!p! d2 f2 fc |!>(! c6!>)! |!p! c2 z2!pp! c2 | d4 d2 | d2 c2 z!f! c | %47
w: Mor- * gen-|lüf- ten ge- *|ho-|ben, und|Al- les|be- tet: wir|
w: ho- * ly|calm _ comes *|o'er|me; the|cho- rus|ri- ses: O|
 !>!f2 !>!f2 !>!f2 | e4 z!ff! a | a2 g2 f2 | e4 f2 |!>(! (B4 d2)!>)! |!p! c4 z!pp! A | (A6- | %54
w: lo- ben den|Herrn, und|wer- den ihn|e- wig|lo- *|ben, ihn|e-|
w: bless ye the|Lord! To|Him give ye|praise and|glo- *|ry, give|praise|
 A2 d2) c2 |"^cresc." (e6- | [eg]6) |!f!"^decres." [ea]6- | !fermata![ea]2!pp! z2 |] %59
w: * * wig|lo-||ben.|_|
w: _ _ and|glo-||ry!|_|
V:2
 x2 | c4 d2 | c4 d2 | c4 d2 | x6 | x6 | x6 | x6 | x6 | x6 | x6 | x6 | x6 | x6 | x6 | x6 | x6 | x6 | %18
 x6 | x6 | x6 | x6 | x6 | x6 | x5 ||[M:9/8] x | x9 | x9 | x9 | x9 | x9 | x9 | x9 | x9 | x9 | x6 || %36
[M:3/4] x2 | x6 | x6 | x6 | x6 | x6 | x6 | x6 | x6 | x6 | x6 | x6 | x6 | x6 | x6 | x6 | x6 | x6 | %54
 x6 | x6 | x6 | x6 | x4 |] %59
V:3
!pp!"^legato" c2 | (c2 Ac) dB | (c2 Ac) dB | (c2 Ac) dA | c"^cresc."c ec ce | %5
w: Es|tö- * * net _|ü- * * ber's *|wei- * * te *|Feld ein lieb- * lich, _|
w: A-|cross _ _ the _|lea _ _ a _|sound _ _ is *|borne a peace- * ful _|
!mf! fA!>(! Fd cA!>)! |!pp! fA Fd cA | (d !>!G2 !>!B2 d) |!>(! c4!>)! dB |!pp! (c2 Ac) dB | %10
w: lieb- * li- * ches _|Glo- * cken- * ge- *|läu- * * *|te. Wie _|ru- * * hig _|
w: sound _ of _ church _|bells _ soft- * ly _|ring- * * *|ing. How _|calm _ _ the _|
 (c2 Ac) dB | (c2 Ac) c2 | =B4 z2 | z!mf!!>(! c c2!>)! ec |"^decres." (B2 G2) F2 | %15
w: _ _ _ _ _|||wie son- nig und||
w: _ _ _ _ _|||what sun- shine and||
!p!!>(! (F3 G A2)!>)! | G2 z2!p!"^ruhig" B2 | B3 B (3_dcB | !>!B>A A3 A | _G3 G (3BAG | %20
w: |||||
w: |||||
 !>!_G2 F2 z!mf! d | d3"^cresc." c (3=BBB | c>c G3!f! c | !>!d2- (3d3/2c/B (3AGF | %24
w: ||||
w: ||||
 !>!c2!p! G z z ||[M:9/8]!p!"^dolce" G | G3- G2 ^F"^cresc." G>AB | =B2 c!<(! e3- e2!<)! e | %28
w: ||||
w: ||||
 e3 e2 d !>!d>cB | !>!=B3 c2 z z2!mf! A | !>!^F>GA G3- G2 B | !>!=B>cc!<(! e3- e2!<)!!f! e | %32
w: ||||
w: ||||
 _f3 _c2 c c2 e | e3 d2 z z2"^dim."!p! _c | _c3!<(! B2 B!<)! =d2 d | %35
w: |||
w: |||
!>(! (B2 F)!>)!!pp! G2 !fermata!z ||[M:3/4]!p! E2 | (A3 c) d2 | c4 B2 | (A3 c) d2 |!<(! c4 c2!<)! | %41
w: ||||||
w: ||||||
!mf!!>(! (f2 A2)!>)! Ac |!p! B2 d2 c2 |!>(! (B2 =E4)!>)! |!p! F2 z2!pp! A2 | A4 A2 | A2 A2 z!f! c | %47
w: ||||||
w: ||||||
 !>!c2 !>!c2 !>!d2 | c4 z!ff! c | c2 c2 d2 | A4 A2 |!>(! (A4 G2)!>)! |!p! A4 z!pp! A | (A6- | %54
w: |||||||
w: |||||||
 A2 G2) A2 |"^cresc." (c6 | d6) |!f!"^decres." c6- | !fermata!c2!pp! z2 |] %59
w: |||||
w: |||||
V:4
!pp!"^legato" E,2 | A,E,CA, G,E, | A,E,CA, G,E, | A,E,CA, A,F, | A,"^cresc."E, CA, E,C | %5
w: Es|tö- * * * net _|ü- * * * ber's *|wei- * * * te *|Feld ein lieb- * lich, _|
w: A-|cross _ _ _ the _|lea _ _ _ a _|sound _ _ _ is *|borne a sound _ of _|
!mf! D2!>(! !>!A,4!>)! |!pp! A,D A,3 E, | E,DB,G,E,B, |!<(! A,2!<)!!>(! !>!E,4!>)! | %9
w: lieb- lich|Glo- * cken- ge-|läu- * * * * *|te. Wie|
w: church bells|soft- * ly _|ring- * * * * *|ing. How|
!pp! A,E,CA, G,E, | A,E,CA, G,2 | A,E,CA, A,F, |!<(! G,4 G,2!<)! |!mf!!>(! G,4!>)! G,A, | %14
w: ru- * * * hig _|ist _ _ _ doch|heut' _ _ _ die _|Welt, wie|son- nig und|
w: calm _ _ _ the _|world, _ _ _ how|fair _ _ _ the _|day, what|sun- shine and|
"^decres." E,4 E,2 |!p!!>(! (=D,3 E, F,2)!>)! | E,2 z2!p!"^ruhig" G,2 | F,3 F, (3F,F,F, | %18
w: won- nig|heu- * *|te! Die|Hir- ten ne- ben der|
w: bright- ness|bring- * *|ing. The|shep- herds lie on the|
 !>!F,>F, F,3 F, | D,3 D, (3D,D,D, | !>!D,2 D,2 z!mf! A, | A,3"^cresc." A, (3=G,G,G, | %22
w: Her- de ruh'n, die|Her- den ruh'n auf der|Wei- de; die|From- men zie- hen zur|
w: soft green grass, be-|side the flock they are|tend- ing; to|church the peas- ants in|
 G,>=E, E,3!f! C | !>!D2- (3D3/2C/B, (3A,G,F, | !>!C,2!p! =E, z z ||[M:9/8]!p!"^dolce" =E, | %26
w: Kir- che nun im|statt- * li- chen Sonn- * tags-|klei- de.|Es|
w: gay at- tire their|way _ now are slow- * ly|wend- ing.|Me|
 _E,3- E,2 E,"^cresc." E,>E,E, | =D,2 E,!<(! C3- C2!<)! C | D3 D2 B, !>!B,>G,G, | %29
w: ist, _ als sän- gen die|Vö- gel auch _ heut'|schö- ner als an- de- re|
w: thinks _ that e- ven the|birds to- day _ sing|sweet- er with- in their green|
 !>!F,3 E,2 z z2!mf! E, | !>!E,>E,E, E,3- E,2 G, | !>!A,>A,A,!<(! C3- C2!<)!!f! C | %32
w: Ta- ge, als|duf- te- ten heut' _ mit|stär- ke- rem Hauch _ die|
w: bow- ers, that|strong- er by far _ the|fra- grance doth seem, _ ex-|
 _C3 A,2 A, _G,A,__B, | __B,3 A,2 z z2"^dim."!p! A, | A,3!<(! A,2 A,!<)! F,=G,A, | %35
w: Blu- men im Feld * und|Haa- ge, die|Blu- men im Feld * und|
w: haled by the way _ side|flow- ers, ex-|haled by the way _ side|
!>(! (G,2 A,)!>)!!pp! B,2 !fermata!z ||[M:3/4]!p! E,2 | (C3 A,) G,B, | (A,2 E,2) E,2 | %39
w: Haa- * ge.|Und|Or- * gel- *|klän- * ge|
w: flow- * ers.|And|or- * gan _|tones _ a-|
 (C3 A,) G,B, |!<(! A,4 A,2!<)! |!mf!!>(! (A,3 D)!>)! CA, |!p! F,3 B, A,2 |!>(! (G,4 B,2)!>)! | %44
w: tö- * nen *|fern, von|Mor- * gen- *|lüf- ten ge-|ho- *|
w: far _ I *|hear a|ho- * ly _|calm _ comes|o'er _|
!p! A,2 z2!pp! F,2 | F,4 F,2 | F,2 E,2 z!f! A, | !>!A,2 !>!A,2 !>!A,2 | A,4 z!ff! A, | %49
w: ben, und|Al- les|be- tet: wir|lo- ben den|Herrn, und|
w: me; the|cho- rus|ri- ses: O|bless ye the|Lord! To|
 A,2 A,2 A,2 | (A,2 G,2) F,2 |!>(! E,6!>)! |!p! E,4 z!pp! A, | A,2 G,2 F,2 | E,4 E,2 | %55
w: wer- den ihn|e- * wig|lo-|ben, und|wer- den ihn|e- wig|
w: Him give ye|praise _ and|glo-|ry, to|Him give ye|praise and|
"^cresc." (A,6 | B,6) |!f!"^decres." A,6- | !fermata!A,2!pp! z2 |] %59
w: lo-||ben.|_|
w: glo-||ry,|_|
V:5
!pp!"^legato" A,,2 | !>!A,4 B,2 | !>!A,4 B,2 | !>!A,4 A,2 | !>!A,,4 A,,2 | %5
w: Es|tö- net|ü- ber's|wei- te|Feld ein|
w: A-|cross the|lea a|sound is|borne a|
!mf! !>!D,4!>(! A,,2!>)! |!pp! D,4 A,,A,, |!>(! E,,6!>)! | A,,4 A,,2 |!pp! [A,,A,]4 [A,,B,]2 | %10
w: lieb- lich|Glo- cken- ge-|läu-|te. Wie|ru- hig|
w: sound of|bells soft- ly|ring-|ing. How|calm the|
 [A,,A,]4 [A,,B,]2 | [A,,A,]4 [A,,A,]2 | G,,=B,,=D,G, =A,=B, |!mf!!>(! CG,E,C,!>)! B,,A,, | %14
w: ||||
w: ||||
"^decres." (G,,2 C,2) A,,2 |!p!!>(! B,,6!>)! | E,,2 z2!p!"^ruhig" E,2 | B,,3 B,, (3B,,B,,D, | %18
w: ||||
w: ||||
 !>!F,>F,, F,,3 F,, | _G,,3 G,, (3G,,G,,B,, | !>!D,2 D,2 z!mf! D, | D,3"^cresc." D, (3D,D,D, | %22
w: ||||
w: ||||
 C,>C, C,3!f! C, | !>!D,2- (3D,3/2C,/B,, (3A,,G,,F,, | !>!C,2!p! C, z z ||[M:9/8]!p!"^dolce" C, | %26
w: ||||
w: ||||
 B,,3- B,,2 E,,"^cresc." E,,>E,,E,, | A,,2 A,,!<(! A,3- A,2!<)! A, | B,3 B,2 A, !>!G,>E,E, | %29
w: |||
w: |||
 !>!A,,3 A,,2 z z2!mf! A,, | !>!=A,,>B,,C, D,3- D,2 B,, | !>!A,,>A,A,!<(! A,3- A,2!<)!!f! A, | %32
w: |||
w: |||
 _F,3 F,2 F, _C,2 C, | =C,3 D,2 z z2"^dim."!p! E, | _F,3!<(! =F,2 F,!<)! B,,2 B,, | %35
w: |||
w: |||
!>(! E,3!>)!!pp! E,2 !fermata!z ||[M:3/4]!p! E,2 | A,,4 A,,2 | A,,4 A,,2 | A,,4 A,,2 | %40
w: |||||
w: |||||
!<(! A,,4 A,2!<)! |!mf!!>(! D,4!>)! A,,2 |!p! B,,3 B,, F,,2 |!>(! C,6!>)! |!p! F,,2 z2!pp! F,2 | %45
w: |||||
w: |||||
 D,4 D,2 | A,,2 A,,2 z!f! A, | !>!F,2 !>!F,2 !>!D,2 | A,,4 z!ff! F, | F,2 E,2 D,2 | C,4 D,2 | %51
w: ||||||
w: ||||||
!>(! (E,2 E,,4)!>)! |!p! A,,4 z!pp! F, | F,2 E,2 D,2 | (C,2 B,,2) A,,2 |"^cresc." (E,6- | %56
w: |||||
w: |||||
 [E,,E,]6) |!f!"^decres." [A,,E,]6- | !fermata![A,,E,]2!pp! z2 |] %59
w: |||
w: |||
V:6
 x2 | A,,4 A,,2 | A,,4 A,,2 | A,,4 A,,2 | x6 | x6 | x6 | x6 | x6 | x6 | x6 | x6 | x6 | x6 | x6 | %15
 x6 | x6 | x6 | x6 | x6 | x6 | x6 | x6 | x6 | x5 ||[M:9/8] x | x9 | x9 | x9 | x9 | x9 | x9 | x9 | %33
 x9 | x9 | x6 ||[M:3/4] x2 | x6 | x6 | x6 | x6 | x6 | x6 | x6 | x6 | x6 | x6 | x6 | x6 | x6 | x6 | %51
 x6 | x6 | x6 | x6 | x6 | x6 | x6 | x4 |] %59

